X: 0941
T: BUFFALO MARCH
B: Oliver Ditson "The Boston Collection of Instrumental Music" 1910 p.94 #1
F: http://conquest.imslp.info/files/imglnks/usimg/8/8f/IMSLP175643-PMLP309456-bostoncollection00bost_bw.pdf
%: 2012 John Chambers <jc:trillian.mit.edu>
M: 4/4
L: 1/8
K: F
c>c |\
a4 f4 | c2c>d c>AB>c | d2d>f e2e>g | f3g a2c>c |\
a4 g4 | f2d>d e2c'>c' | f2a>a g2=B2 | c2c>c c2 :|
|: c>c |\
b3a g>fe>d | c2d2 e2f2 | g3a b>da>g | (f4 e2)c>c |\
~d3f e>cd>e | f>ad'>c' g2b>b | a2f2 g2e2 | f2f>f f2 :|
|: c>c |\
(f4 c2)a>g | (f4 c2)a>g | f>ef>e f>ef>a | g2c'>c' c'>ba>g |\
(f4 c2)a>g | ^f2d>d g2=f>f | e2c>c c'2b>b | a2f>f f2 :|

%%sep 1 1 500
%%sep 1 1 500
